X: 1
T: the Top Of Ben Lomond
R: jig, march
Z: Dan Mozell <Dan.Mozell:nashville.com> 2005
M: 6/8
L: 1/8
K: D
a \
| "D"f<af dfd | "G"B<dB "A7"A2B | "D"d>ef "Bm"afd | "Em"e>fd "A7"e2a \
| "D"f<af dfd | "G"B<dB "A7"A2B | "D"d>ef "A7"afe |  "D"d3 d2 :|
|: {f}g \
| "D"a2~A f2~A | "G"B<dB "A7"A2B | "D"d>ef "Bm"afd | "Em"e>fd "A7"e2{f}g \
| "D"a2~A f2~A | "G"B<dB "A7"A2B | "D"d>ef "A7"afe |  "D"d3 d2 :|
